!! 00000] TT[WS
!!!OTL: Nao yuanxiao
!!!ARE: Asia, China,ÿShanxi Ningwu
!! Ethnic Group: Han
!! WI, 211 (2)
!!!SCT: J0250
!!!YEM: Copyright 1995, estate of Helmut Schaffrath.
**kern
*ICvox
*Ivox
*M2/4
*k[f#]
*G:
{8b
4b
8r
=1
8b
8b
16b
16dd
16b
16a
=2
8e
4.g
=3
8b
8b
16a
16b
16a
16g
=4
8e
8g
4B}
=5
{16b
8b
16b
16a
16b
16a
16g
=6
8e
8g
4B
=7
8g
16e
16d
4B
=8
8g
16e
16d
4B}
=9
{16b
8b
16b
16a
16b
16a
16g
=10
16e
16g
16e
16d
4B
=11
8g
16e
16d
4B
=12
8f#
16e
16d
4B}
=13
{8b
8b
16a
16b
16a
16g
=14
8e
8g
4B
=15
16b
16r
16b
16r
4r
=16
16b
16r
16b
16r
4r}
=17
{8b
8b
16e
16g
16e
16d
=18
16b
16dd
16b
16a
8e
8g
=19
16dd
16dd
16dd
16b
16a
16g
16a
16b
=20
8g
16f#
16e
4B
=21
8f#
8B
4d}
==
!!!AGN: Xiaodiao. Fengsuge
!!!ONB: ESAC (Essen Associative Code) Database: CHINA
!!!AMT: simple duple
!!!AIN: vox
!!!EED: Helmut Schaffrath
!!!EEV: 1.0
*-
